X:262
T: O WUNDERBARES GLUECK
N: E1402
O: Europa, Mitteleuropa, Deutschland, Oderbruch, Gross - Neuendorf
R: Staende -, Soldaten - Lied, Klage
M: 2/4
L: 1/8
K: Bb
B2 | AGFE | D2
F2 | GecA | B2z
B | dBBB | c2A
F | dBBB | c2A
B | AGFE | D2
F2 | GecA | B2

@@@ Tune index: 4946
